X:1
T:River Flows In You
T:River Flows In You
T:YIRUMA
C:Yiruma
%%score { 1 | 2 }
L:1/8
Q:1/4=65
M:4/4
K:A
V:1 treble nm="Piano" snm="Pno."
V:2 bass 
V:1
!mp! agag aead- | d6- dA/c/ | agag aead- | d6- dA/c/ | ag/a/- a/A/g/a/- a/A/e/a/- a/A/d/A/ | %5
{/B} cd[Ae]c [GB]3 A/G/ | A2- A/E/A/B/ c3 c/d/ | e3 d/c/ B4 | %8
({Ac)} ag/a/- a/A/g/a/- a/A/e/a/- a/A/d/A/ |{/B} cdec' be{bc'} ba/g/ | [ea]3 A/B/ cE Ac/d/ | %11
 eE cd/c/ B2 a/b/a/g/ | a/A/e/A/ a/b/a/g/ a/A/e/A/ a/b/a/g/ | a/b/c'/d'/ e'/c'/b/a/ gB a/b/a/g/ | %14
 a/A/e/A/ a/b/a/g/ a/A/e/A/ a/b/a/g/ | a/b/c'/d'/ e'/c'/b/a/ gB a/a/4b/4a/g/ | %16
 a/A/e/A/ a/a/4b/4a/g/ a/A/e/A/ a/a/4b/4a/g/ | a/b/c'/d'/ e'/c'/b/a/ gB a/a/4b/4a/g/ | %18
 a/A/e/A/ a/a/4b/4a/g/ a/A/e/A/ a/b/a/g/ ||[M:5/4] a/b/c'/d'/ e'/c'/b/a/ gB G !fermata!E2 A/c/ || %20
[M:4/4] ag/a/- a/A/g/a/- a/A/g/a/- a/A/d/A/ |{/B} cd[Ae]c [GB]3 A/G/ | %22
 ((([EA]2 [EA]/)))E/A/B/ c/E/A/B/ c/E/c/d/ | e/E/c/d/ e/E/d/c/ B/E/d/c/ BG | %24
{/c} ag/a/- a/A/g/a/- a/A/e/a/- a/A/d/A/ |{/B} cdec' be{ec'} ba/g/ | [ea]3 A/B/ c/E/A/B/ c/E/c/d/ | %27
 e/E/c/d/ e/E/d/c/ B/E/G/B/ a/b/a/g/ | a/A/e/A/ a/a/4b/4a/g/ a/A/e/A/ a/a/4b/4a/g/ | %29
 a/b/c'/d'/ e'/c'/{bc'}b/a/ g/A/e/A/ a/a/4b/4a/g/ | a/A/e/A/ a/a/4b/4a/g/ a/A/e/A/ a/a/4b/4a/g/ | %31
 a/b/c'/d'/ e'/c'/{bc'}b/a/ g/A/e/A/ a/a/4b/4a/g/ | a/A/e/A/ a/b/a/g/ a/A/e/A/ a/a/4b/4a/g/ | %33
 a/b/c'/d'/ e'/c'/b/a/ gB a/a/4b/4a/g/ | a/A/e/A/ a/a/4b/4a/g/ a/A/e/A/ a/a/4b/4a/g/ | %35
 a/b/c'/d'/ e'/c'/b/a/ gBGE |{Ac} agag [Aca]ead | [Ac]d[Ae]c B2 AG | %38
 !arpeggio![CEA]2 EA/B/ cE Ac/d/ | eE cd/c/ B7/2 A/4c/4 | agag !arpeggio![Aea]ead | %41
{/B} cdec' [eb]3 A/ z/ | [EA]3 A/B/ cE Ac/d/ | eE Ad/c/ B2 E2 | AA,CF !fermata![Aa]4 |] %45
V:2
 F,C F2 D,A, E2- | E8 | F,C F2 D,A, E2- | E8 | F,C F2 D,A,ED, | A,,E, C2 E,B, E2 | F,C F2 D,A, E2 | %7
 A,,E, C2 E,B, G2 | F,C F2 D,A,ED, | A,,E,CA,, E,B, E2 | F,C F2 D,B, E2 | A,,E, C2 E,B, E2 | %12
 F,CFF, D,A,ED, | A,,E,CA,, E,B,EE, | F,CEF, D,B,ED, | A,,E,CA,, E,B,EE, | F,,C,F,F,, D,A,CD, | %17
 A,,E,CA,, E,,B,,G,E,, | F,,C,F,F,, D,A,ED, ||[M:5/4] A,,E,CA,,E,,B,, !fermata!G,4 || %20
[M:4/4] F,C F2 D,A,ED, | A,,E,CA,, E,B, E2 | F, C3 D,A, D2 | A,,E,CA,, E,B, E2 | F,CFF, D,A,ED, | %25
 A,,E,CA,, E,B,EE, | F,C F2 D,A,DD, | A,,E,CA,, E,,B,,G,E,, | F,,C,FF, D,A,ED, | %29
 A,,E,CA,, E,,B,,G,E,, | F,,C,FF, D,A,ED, | A,,E,CA,, E,,B,,G,E,, | F,,C,FF, D,A,ED, | %33
 A,,E,CA,, E,,B,,G,E,, | F,,C,FF, D,A,ED, | A,,E,CA,, E,,B,, G,2 | [F,C]4 E,DFE, | E,C A,2 [EG]4 | %38
 F,, C,3 D,A, E2 | A,,E, C2 E,B, E2 | F,C F2 D,A,ED, | A,,E, C2 E,B, G2 | F,,C, F,2 D,A, D2 | %43
 A,,E, C2 E,,B,, G,2 | F,,C, F,2 !fermata!C4 |] %45

